public/style/workarea/images/icons/exe-delete-icon-green.svg

<svg fill="none" height="20" viewBox="0 0 21 20" width="21" xmlns="http://www.w3.org/2000/svg"><g stroke="#0ba1a1" stroke-linecap="round" stroke-linejoin="round" stroke-width="1.5"><path d="m2.83301 5h1.66666 13.33333"/><path d="m6.99976 5.00002v-1.66667c0-.44202.17559-.86595.48815-1.17851s.73648-.48815 1.17851-.48815h3.33338c.442 0 .8659.17559 1.1785.48815.3125.31256.4881.73649.4881 1.17851v1.66667m2.5 0v11.66668c0 .442-.1756.8659-.4881 1.1785-.3126.3126-.7365.4882-1.1785.4882h-8.33338c-.44203 0-.86595-.1756-1.17851-.4882s-.48815-.7365-.48815-1.1785v-11.66668z"/><path d="m11.9998 9.16669v5.00001"/><path d="m8.66626 9.16669v5.00001"/></g></svg>

<svg width="21" height="20" viewBox="0 0 21 20" fill="none" xmlns="http://www.w3.org/2000/svg">
<path d="M2.83301 5H4.49967H17.833" stroke="#0BA1A1" stroke-width="1.5" stroke-linecap="round" stroke-linejoin="round"/>
<path d="M6.99976 5.00002V3.33335C6.99976 2.89133 7.17535 2.4674 7.48791 2.15484C7.80047 1.84228 8.22439 1.66669 8.66642 1.66669H11.9998C12.4418 1.66669 12.8657 1.84228 13.1783 2.15484C13.4908 2.4674 13.6664 2.89133 13.6664 3.33335V5.00002M16.1664 5.00002V16.6667C16.1664 17.1087 15.9908 17.5326 15.6783 17.8452C15.3657 18.1578 14.9418 18.3334 14.4998 18.3334H6.16642C5.72439 18.3334 5.30047 18.1578 4.98791 17.8452C4.67535 17.5326 4.49976 17.1087 4.49976 16.6667V5.00002H16.1664Z" stroke="#0BA1A1" stroke-width="1.5" stroke-linecap="round" stroke-linejoin="round"/>
<path d="M11.9998 9.16669V14.1667" stroke="#0BA1A1" stroke-width="1.5" stroke-linecap="round" stroke-linejoin="round"/>
<path d="M8.66626 9.16669V14.1667" stroke="#0BA1A1" stroke-width="1.5" stroke-linecap="round" stroke-linejoin="round"/>
</svg>
